storage/app/icons/phosphoricons/thin/pause-thin.svg

<svg xmlns="http://www.w3.org/2000/svg" fill="currentColor" viewBox="0 0 256 256"><path d="M200 36h-40a12 12 0 0 0-12 12v160a12 12 0 0 0 12 12h40a12 12 0 0 0 12-12V48a12 12 0 0 0-12-12m4 172a4 4 0 0 1-4 4h-40a4 4 0 0 1-4-4V48a4 4 0 0 1 4-4h40a4 4 0 0 1 4 4ZM96 36H56a12 12 0 0 0-12 12v160a12 12 0 0 0 12 12h40a12 12 0 0 0 12-12V48a12 12 0 0 0-12-12m4 172a4 4 0 0 1-4 4H56a4 4 0 0 1-4-4V48a4 4 0 0 1 4-4h40a4 4 0 0 1 4 4Z"/></svg>

<svg xmlns="http://www.w3.org/2000/svg" viewBox="0 0 256 256" fill="currentColor"><path d="M200,36H160a12,12,0,0,0-12,12V208a12,12,0,0,0,12,12h40a12,12,0,0,0,12-12V48A12,12,0,0,0,200,36Zm4,172a4,4,0,0,1-4,4H160a4,4,0,0,1-4-4V48a4,4,0,0,1,4-4h40a4,4,0,0,1,4,4ZM96,36H56A12,12,0,0,0,44,48V208a12,12,0,0,0,12,12H96a12,12,0,0,0,12-12V48A12,12,0,0,0,96,36Zm4,172a4,4,0,0,1-4,4H56a4,4,0,0,1-4-4V48a4,4,0,0,1,4-4H96a4,4,0,0,1,4,4Z"/></svg>
